icons/link-external-16.svg

<svg xmlns="http://www.w3.org/2000/svg" width="16" height="16" viewBox="0 0 16 16"><path d="M3.75 2h3.5a.75.75 0 010 1.5h-3.5a.25.25 0 00-.25.25v8.5c0 .138.112.25.25.25h8.5a.25.25 0 00.25-.25v-3.5a.75.75 0 011.5 0v3.5A1.75 1.75 0 0112.25 14h-8.5A1.75 1.75 0 012 12.25v-8.5C2 2.784 2.784 2 3.75 2zm6.854-1h4.146a.25.25 0 01.25.25v4.146a.25.25 0 01-.427.177L13.03 4.03 9.28 7.78a.751.751 0 01-1.042-.018.751.751 0 01-.018-1.042l3.75-3.75-1.543-1.543A.25.25 0 0110.604 1z"/></svg>

<svg xmlns="http://www.w3.org/2000/svg" width="16" height="16" viewBox="0 0 16 16">
  <defs/>
  <path d="M3.75,2 L7.25,2 C7.664,2 8,2.336 8,2.75 C8,3.164 7.664,3.5 7.25,3.5 L3.75,3.5 C3.612,3.5 3.5,3.612 3.5,3.75 L3.5,12.25 C3.5,12.388 3.612,12.5 3.75,12.5 L12.25,12.5 C12.388,12.5 12.5,12.388 12.5,12.25 L12.5,8.75 C12.5,8.336 12.836,8 13.25,8 C13.664,8 14,8.336 14,8.75 L14,12.25 C14,13.216 13.216,14 12.25,14 L3.75,14 C2.784,14 2,13.216 2,12.25 L2,3.75 C2,2.784 2.784,2 3.75,2 Z M10.604,1 L14.75,1 C14.888,1 15,1.112 15,1.25 L15,5.396 C15,5.497 14.939,5.589 14.846,5.627 C14.752,5.666 14.645,5.645 14.573,5.573 L13.03,4.03 L9.28,7.78 C8.984,8.055 8.524,8.047 8.238,7.762 C7.953,7.476 7.945,7.016 8.22,6.72 L11.97,2.97 L10.427,1.427 C10.355,1.355 10.334,1.248 10.373,1.154 C10.411,1.061 10.503,1 10.604,1 Z"/>
</svg>
